src/assets/img/morning.svg

<svg width="315" height="305" viewBox="0 0 315 305" fill="none" xmlns="http://www.w3.org/2000/svg">
<path d="M198.095 47.7488C200.68 46.2214 202.56 43.5191 204.205 41.0517C206.085 38.2319 207.554 35.2359 208.67 32.0636C210.021 28.3038 203.617 26.4826 202.677 30.4186C201.972 33.2972 201.15 36.1171 200.151 38.8781C199.152 41.5805 197.684 44.0478 196.979 46.8089C196.744 47.5139 197.507 48.1013 198.095 47.7488Z" fill="#E8770A"/>
<path d="M126.656 43.1667C128.066 38.1732 126.245 32.2399 125.07 27.3052C124.071 23.0167 117.08 24.8966 118.431 29.1264C120.017 33.9436 121.603 39.9357 125.363 43.5192C125.833 43.9304 126.538 43.7541 126.656 43.1667Z" fill="#E8770A"/>
<path d="M70.6093 80.0593C69.7868 78.2969 69.023 76.7107 67.9656 75.0658C66.9081 73.4797 65.9093 71.8935 64.8519 70.3074C61.9731 65.8426 55.452 71.0711 59.1532 74.7133C60.5632 76.1233 62.0319 77.5332 63.4419 78.9431C64.8519 80.353 66.4381 81.4692 68.0243 82.6441C69.6693 83.8778 71.3143 81.5867 70.6093 80.0593Z" fill="#E8770A"/>
<path d="M43.232 137.866C42.4682 136.339 41.9982 135.692 40.5883 134.752C39.1783 133.812 37.7095 132.99 36.1821 132.344C33.0684 131.051 29.6609 130.464 26.2535 130.229C21.5535 129.935 21.5535 137.925 26.2535 137.514C29.1322 137.279 31.8934 137.455 34.7133 137.925C35.9471 138.16 37.1808 138.395 38.4145 138.747C40.0008 139.217 40.7645 139.276 42.4095 139.276C43.1732 139.335 43.5845 138.512 43.232 137.866Z" fill="#E8770A"/>
<path d="M54.5711 206.893C52.5736 205.718 49.9299 206.952 47.8149 206.541C45.5825 206.13 43.4088 207.304 43.115 209.713C42.8213 211.71 44.525 214.295 46.8162 214.001C49.2249 213.708 51.3986 213.061 53.2786 211.475C53.9836 210.829 54.5711 210.065 54.9236 209.125C55.1586 208.538 55.2173 207.304 54.5711 206.893Z" fill="#E8770A"/>
<path d="M109.501 253.773C108.032 255.535 107.445 257.591 106.74 259.765C105.976 261.997 105.271 264.171 104.507 266.403C102.804 271.456 111.381 273.688 112.38 268.577C112.791 266.286 113.261 263.995 113.672 261.704C114.083 259.471 114.671 257.298 114.201 255.007C113.848 253.009 110.852 252.187 109.501 253.773Z" fill="#E8770A"/>
<path d="M187.755 259.413C187.402 263.172 189.165 267.755 190.222 271.338C191.515 275.92 198.917 273.629 197.155 269.399C195.627 265.698 194.158 260.822 191.339 257.885C189.987 256.534 187.931 257.709 187.755 259.413Z" fill="#E8770A"/>
<path d="M253.848 217.115C256.902 219.171 259.546 221.815 261.191 225.163C263.071 229.04 269.064 225.633 267.007 221.756C264.599 217.174 260.897 213.708 255.962 212.063C252.849 211.005 251.38 215.411 253.848 217.115Z" fill="#E8770A"/>
<path d="M269.417 149.204C273.47 149.439 277.642 149.028 281.695 148.793C285.925 148.558 285.161 142.272 280.931 143.035C276.937 143.74 272.824 144.21 268.947 145.327C266.714 145.973 267.243 149.086 269.417 149.204Z" fill="#E8770A"/>
<path d="M256.433 83.8193C258.724 81.7632 260.428 79.1196 262.837 77.1809C265.187 75.2423 268.007 73.7149 270.885 72.6575C275.468 70.9538 272.648 64.1393 268.242 66.4304C264.893 68.1928 261.897 70.4251 259.253 73.0687C256.785 75.536 254.083 78.5321 253.143 81.9394C252.556 83.878 255.023 85.1117 256.433 83.8193Z" fill="#E8770A"/>
<path d="M51.0455 99.2694C50.5755 99.0932 50.1055 98.9169 49.6355 98.6819C50.5755 99.0932 50.6342 99.0932 49.6942 98.6819C48.2843 97.977 46.8155 97.3896 45.3468 96.8021C44.8181 96.6258 41.5869 95.7447 44.1718 96.3909C43.3493 96.1559 42.5268 95.6272 41.7631 95.216C40.9406 94.8047 40.1769 94.3935 39.4131 93.9235C39.0606 93.6885 36.8282 92.6899 36.7694 92.2786C37.9444 93.3361 38.1207 93.4536 37.2982 92.5724C36.9457 92.2199 36.6519 91.8086 36.2994 91.4562C35.9469 91.0449 35.6532 90.6925 35.3007 90.2812C36.5344 91.8674 36.7107 92.1611 35.9469 91.1037C33.127 87.2264 29.602 84.5828 24.6084 84.5828C20.4372 84.5828 16.7947 86.5214 14.2685 89.7525C8.45234 97.2721 12.3885 107.553 21.0834 110.431C23.0809 111.077 25.1371 111.43 27.1346 112.076C29.3083 112.781 31.4233 113.662 33.6557 114.309C38.6494 115.66 43.6431 116.247 48.813 115.601C52.9842 115.072 56.4504 112.84 57.0379 108.375C57.6254 104.028 54.9817 100.738 51.0455 99.2694Z" fill="#E8770A"/>
<path d="M39.7659 169.119C36.0647 165.829 30.6011 166.769 26.1361 167.298C22.0237 167.768 17.8525 168.238 13.7401 168.766C8.92263 169.295 4.86894 170.94 2.34273 175.346C0.169012 178.988 0.0515134 183.277 1.69649 187.095C3.28272 190.855 6.27892 193.675 10.2739 194.732C15.2675 196.084 19.2625 194.321 23.1399 191.325C26.7236 188.505 30.3661 185.744 33.9498 182.924C35.771 181.514 37.3572 180.222 38.7672 178.46C39.8834 177.05 40.9409 175.816 41.2347 173.995C41.4697 172.291 41.1759 170.353 39.7659 169.119Z" fill="#E8770A"/>
<path d="M77.0718 234.21C71.7256 234.093 67.8482 239.791 64.4407 243.257C62.9132 244.785 61.3858 246.253 59.7995 247.722C59.1533 248.309 58.1545 249.602 57.3908 249.837C58.5658 248.956 58.6833 248.897 57.7433 249.602C57.3321 249.895 56.9208 250.189 56.4508 250.483C53.1609 252.774 50.5759 256.123 50.7522 260.411C50.8697 263.466 51.9271 266.345 54.1009 268.518C59.447 273.864 68.0832 272.337 72.1368 266.227C74.6043 262.467 77.1893 258.766 79.4217 254.83C80.7142 252.539 81.8305 250.189 82.8292 247.722C84.2392 244.256 85.1204 241.318 83.2992 237.735C82.0655 235.503 79.4805 234.269 77.0718 234.21Z" fill="#E8770A"/>
<path d="M148.922 259.295C143.517 261.233 141.754 268.342 140.403 273.394C139.287 277.624 138.171 281.795 137.289 286.083C136.467 289.902 136.408 293.074 137.994 296.658C139.757 300.535 143.517 303.002 147.571 303.825C155.032 305.293 163.962 299.771 163.903 291.429C163.844 286.201 163.492 281.031 163.139 275.803C162.904 272.278 162.845 268.048 161.259 264.817C160.437 263.055 159.085 261.234 157.44 260.117C154.797 258.12 151.859 258.237 148.922 259.295Z" fill="#E8770A"/>
<path d="M217.071 240.085C217.423 245.842 220.185 250.953 222.535 256.181C224.415 260.47 226.882 264.465 229.115 268.577C233.403 276.331 244.037 277.976 250.852 272.748C257.667 267.461 258.783 256.886 252.32 250.718C248.972 247.487 245.741 244.08 242.098 241.142C237.692 237.617 233.521 233.623 228.057 231.743C222.946 229.98 216.718 234.621 217.071 240.085Z" fill="#E8770A"/>
<path d="M264.422 193.44C266.42 195.026 268.535 196.378 270.591 197.846C270.885 198.081 272.236 199.08 270.767 197.964C268.77 196.436 272.589 199.374 272.824 199.55C274.116 200.372 270.885 197.964 272.001 198.904C272.412 199.256 272.882 199.609 273.294 200.02C274.645 201.254 275.879 202.605 277.112 203.956C278.405 205.425 276.172 202.957 276.231 202.84C276.172 202.899 277.054 204.073 277.171 204.25C278.287 205.895 279.58 207.422 280.872 209.008C280.108 208.068 279.403 207.128 278.64 206.13C279.227 206.893 279.756 207.598 280.285 208.362C282.341 211.417 285.043 213.825 288.686 214.824C292.035 215.764 296.558 215.353 299.554 213.414C305.606 209.478 309.013 200.666 304.607 194.145C303.373 192.265 301.963 190.503 300.553 188.741C299.143 186.978 297.322 185.745 295.501 184.393C293.562 182.983 291.565 181.691 289.391 180.692C282.87 177.579 275.937 175.64 268.711 176.991C261.896 178.284 258.783 188.976 264.422 193.44Z" fill="#E8770A"/>
<path d="M263.717 114.955C265.832 116.717 267.595 117.598 270.239 117.951C271.825 118.186 273.235 118.068 274.821 118.01C277.465 117.892 280.05 117.892 282.693 117.951C287.863 118.01 293.092 118.303 298.262 118.656C302.551 119.008 306.722 116.717 309.718 113.897C313.478 110.431 314.829 105.144 314.183 100.268C312.949 91.1625 303.314 83.5842 293.915 86.7565C287.981 88.7539 282.165 91.1625 276.584 93.9823C271.12 96.7434 263.071 99.9745 261.426 106.378C260.78 109.256 261.368 113.016 263.717 114.955Z" fill="#E8770A"/>
<path d="M225.002 68.9564C227.881 68.604 229.82 67.7815 232.052 66.0191C233.345 65.0204 234.52 63.9043 235.695 62.7293C237.927 60.5557 240.101 58.3234 242.333 56.1497C244.448 54.0349 246.563 51.9787 248.678 49.8638C249.853 48.7476 251.028 47.5727 252.203 46.4566C252.791 45.8691 254.318 44.8703 252.027 46.339C252.732 45.869 253.378 45.3403 254.083 44.8116C257.843 42.0505 260.839 38.3495 260.663 33.356C260.487 29.8312 259.312 26.5414 256.786 24.0153C254.377 21.6067 250.793 20.1381 247.444 20.1381C243.215 20.1381 237.81 22.5466 235.988 26.7176C233.462 32.4161 229.937 37.5858 226.706 42.873C225.12 45.3991 223.592 47.9252 222.006 50.3925C220.009 53.6236 217.189 57.5009 217.6 61.4369C217.952 65.138 220.655 69.4852 225.002 68.9564Z" fill="#E8770A"/>
<path d="M165.137 46.5738C167.663 42.9902 168.897 38.878 170.307 34.7658C171.658 30.8885 173.126 27.07 174.713 23.3102C174.243 24.4264 173.773 25.4838 173.303 26.6C173.655 25.8363 174.008 25.1313 174.478 24.4264C173.714 25.4251 172.95 26.4238 172.186 27.3637C175.653 24.0152 176.945 19.9616 177.18 15.2619C177.533 7.74234 171.188 1.33902 164.079 0.399073C156.912 -0.54087 149.274 3.86513 147.512 11.2084C146.396 15.8494 146.748 20.2553 149.216 24.3676C148.746 23.1927 148.217 22.0177 147.747 20.8428C149.098 24.8376 149.333 29.3023 150.156 33.4146C151.096 37.9968 152.153 42.4615 154.738 46.3975C157.382 50.5098 162.493 50.3923 165.137 46.5738Z" fill="#E8770A"/>
<path d="M103.039 56.8545C104.507 49.1587 100.101 41.8153 96.0476 35.4707C94.5789 33.1208 93.6976 30.4772 92.1701 28.1273C90.2902 25.19 88.5277 23.4276 85.884 21.4302C82.3003 18.6691 78.1878 17.8467 73.7229 17.8467C68.553 17.8467 63.7356 20.6078 61.0918 25.0725C58.3306 29.7723 58.6831 35.0595 61.0918 39.8179C62.4431 42.4615 63.9706 44.7526 66.438 46.6325C68.9055 48.5124 71.3729 49.7461 74.3692 50.7448C75.5441 51.156 76.6604 51.5085 77.8354 51.9197C78.3641 52.096 78.8341 52.331 79.3628 52.5072C81.5953 53.3296 76.5429 50.9798 78.7166 52.331C77.8941 51.8023 76.7191 50.7448 78.1878 51.9785C78.6578 52.3897 79.1278 52.7422 79.5978 53.1534C80.6553 54.0933 81.7128 55.0921 82.7115 56.1495C84.8852 58.3819 86.7652 61.0255 89.7614 62.3179C92.5226 63.5516 94.9313 63.9628 97.7513 62.7879C100.219 61.6717 102.51 59.5568 103.039 56.8545Z" fill="#E8770A"/>
<path d="M241.687 195.261C228.057 220.287 204.44 237.617 178.943 244.667C149.451 252.833 116.375 247.311 92.4638 226.514C68.5529 205.718 55.5106 169.001 63.5593 136.456C64.2055 133.93 64.9105 131.404 65.7917 128.878C82.594 79.5892 140.168 44.9287 185.816 58.5579C211.137 66.1362 234.578 84.8176 246.387 111.312C247.562 114.015 248.619 116.776 249.559 119.596C257.373 144.21 253.906 172.879 241.687 195.261Z" fill="#FDCC13"/>
<path d="M238.984 131.345C239.278 112.605 220.479 107.2 205.674 111.547C191.163 115.836 183.114 130.64 192.631 143.505C198.565 151.495 209.14 155.666 218.892 153.904C229.585 151.906 238.749 142.272 238.984 131.345Z" fill="white"/>
<path d="M141.695 131.345C141.989 112.605 123.189 107.2 108.385 111.547C93.8736 115.836 85.825 130.64 95.3424 143.505C101.276 151.495 111.851 155.666 121.603 153.904C132.296 151.906 141.519 142.272 141.695 131.345Z" fill="white"/>
<path d="M241.687 195.261C228.057 220.287 204.44 237.617 178.943 244.667C149.451 252.833 116.375 247.31 92.4638 226.514C68.5529 205.718 55.5106 169.001 63.5593 136.456C64.2055 133.93 64.9105 131.404 65.7917 128.877C62.5018 147.441 64.6167 167.004 72.5479 184.099C82.4177 205.542 101.57 222.754 124.247 229.334C133.764 232.095 143.693 232.976 153.563 232.976C173.068 232.976 193.101 229.158 209.433 218.525C227.469 206.717 239.689 187.272 245.388 166.475C249.559 151.26 250.558 135.398 249.559 119.596C257.373 144.21 253.906 172.879 241.687 195.261Z" fill="#FCAF17"/>
<path d="M155.267 201.841C145.926 194.204 145.867 186.743 142.048 176.697C148.511 180.34 156.912 180.81 163.962 178.93C170.659 177.167 176.945 173.877 182.115 169.236C178.884 172.115 180.999 193.44 178.238 199.373C173.538 209.595 163.609 208.597 155.267 201.841Z" fill="#D06015"/>
<path d="M232.992 136.515C239.102 124.472 227.117 114.015 215.543 118.245C207.729 121.123 203.03 129.7 205.438 137.748C205.908 139.335 206.672 140.803 207.788 141.978C209.433 143.682 211.724 144.504 214.016 144.974C221.359 146.384 229.643 143.153 232.992 136.515Z" fill="#2A2A86"/>
<path d="M216.425 131.11C218.364 140.686 232.992 133.577 230.055 126.117C227.293 118.891 215.015 123.943 216.425 131.11Z" fill="white"/>
<path d="M138.406 136.515C144.516 124.472 132.531 114.015 120.957 118.245C113.144 121.123 108.444 129.7 110.852 137.748C111.322 139.335 112.086 140.803 113.202 141.978C114.847 143.682 117.138 144.504 119.43 144.974C126.715 146.384 135.057 143.153 138.406 136.515Z" fill="#2A2A86"/>
<path d="M122.896 133.225C124.835 142.801 139.463 135.692 136.526 128.232C133.706 121.064 121.427 126.058 122.896 133.225Z" fill="white"/>
</svg>

<svg xmlns="http://www.w3.org/2000/svg" width="315" height="305" fill="none" ><g fill="#e8770a"><path d="M198.095 47.749c2.585-1.527 4.465-4.23 6.11-6.697 1.88-2.82 3.349-5.816 4.465-8.988 1.351-3.76-5.053-5.581-5.993-1.645-.705 2.879-1.527 5.698-2.526 8.46-.999 2.702-2.467 5.17-3.172 7.931-.235.705.528 1.292 1.116.94zm-71.439-4.582c1.41-4.993-.411-10.927-1.586-15.861-.999-4.288-7.99-2.409-6.639 1.821 1.586 4.817 3.172 10.809 6.932 14.393.47.411 1.175.235 1.293-.352zM70.609 80.059c-.823-1.762-1.586-3.349-2.644-4.993l-3.114-4.758c-2.879-4.465-9.4.764-5.699 4.406l4.289 4.23c1.41 1.41 2.996 2.526 4.582 3.701 1.645 1.234 3.29-1.057 2.585-2.585zm-27.377 57.807c-.764-1.527-1.234-2.174-2.644-3.114s-2.879-1.762-4.406-2.408c-3.114-1.293-6.521-1.88-9.929-2.115-4.7-.294-4.7 7.696 0 7.285 2.879-.235 5.64-.059 8.46.411 1.234.235 2.468.47 3.701.822 1.586.47 2.35.529 3.995.529.764.059 1.175-.764.822-1.41zm11.339 69.027c-1.998-1.175-4.641.059-6.756-.352-2.232-.411-4.406.763-4.7 3.172-.294 1.997 1.41 4.582 3.701 4.288 2.409-.293 4.582-.94 6.462-2.526.705-.646 1.293-1.41 1.645-2.35.235-.587.294-1.821-.352-2.232zm54.93 46.88c-1.469 1.762-2.056 3.818-2.761 5.992l-2.233 6.638c-1.703 5.053 6.874 7.285 7.873 2.174l1.292-6.873c.411-2.233.999-4.406.529-6.697-.353-1.998-3.349-2.82-4.7-1.234zm78.254 5.64c-.353 3.759 1.41 8.342 2.467 11.925 1.293 4.582 8.695 2.291 6.933-1.939-1.528-3.701-2.997-8.577-5.816-11.514-1.352-1.351-3.408-.176-3.584 1.528zm66.093-42.298c3.054 2.056 5.698 4.7 7.343 8.048 1.88 3.877 7.873.47 5.816-3.407-2.408-4.582-6.11-8.048-11.045-9.693-3.113-1.058-4.582 3.348-2.114 5.052zm15.569-67.911c4.053.235 8.225-.176 12.278-.411 4.23-.235 3.466-6.521-.764-5.758-3.994.705-8.107 1.175-11.984 2.292-2.233.646-1.704 3.759.47 3.877zm-12.984-65.385c2.291-2.056 3.995-4.7 6.404-6.638 2.35-1.939 5.17-3.466 8.048-4.523 4.583-1.704 1.763-8.518-2.643-6.227-3.349 1.762-6.345 3.995-8.989 6.638-2.468 2.467-5.17 5.463-6.11 8.871-.587 1.939 1.88 3.172 3.29 1.88zM51.046 99.269l-1.41-.588c.94.411.999.411.059 0-1.41-.705-2.879-1.292-4.347-1.88-.529-.176-3.76-1.057-1.175-.411-.822-.235-1.645-.764-2.409-1.175l-2.35-1.292c-.352-.235-2.585-1.234-2.644-1.645 1.175 1.058 1.351 1.175.529.294-.352-.353-.646-.764-.999-1.116l-.999-1.175.646.823c-2.82-3.877-6.345-6.521-11.338-6.521-4.171 0-7.814 1.939-10.34 5.17-5.816 7.52-1.88 17.801 6.815 20.679 1.997.646 4.054.999 6.051 1.645 2.174.705 4.289 1.586 6.521 2.233 4.994 1.351 9.987 1.938 15.157 1.292 4.171-.529 7.637-2.761 8.225-7.226.587-4.347-2.056-7.637-5.992-9.106zm-11.28 69.85c-3.701-3.29-9.165-2.35-13.63-1.821l-12.396 1.468c-4.817.529-8.871 2.174-11.397 6.58-2.174 3.642-2.291 7.931-.646 11.749 1.586 3.76 4.582 6.58 8.577 7.637 4.994 1.352 8.989-.411 12.866-3.407l10.81-8.401c1.821-1.41 3.407-2.702 4.817-4.464 1.116-1.41 2.174-2.644 2.467-4.465.235-1.704-.059-3.642-1.469-4.876zm37.306 65.091c-5.346-.117-9.224 5.581-12.631 9.047a166.02 166.02 0 0 1-4.641 4.465c-.646.587-1.645 1.88-2.409 2.115 1.175-.881 1.293-.94.352-.235-.411.293-.822.587-1.292.881-3.29 2.291-5.875 5.64-5.699 9.928.117 3.055 1.175 5.934 3.349 8.107 5.346 5.346 13.982 3.819 18.036-2.291 2.468-3.76 5.053-7.461 7.285-11.397 1.293-2.291 2.409-4.641 3.407-7.108 1.41-3.466 2.291-6.404.47-9.987-1.234-2.232-3.819-3.466-6.227-3.525zm71.85 25.085c-5.405 1.938-7.168 9.047-8.519 14.099-1.116 4.23-2.232 8.401-3.114 12.689-.822 3.819-.881 6.991.705 10.575 1.763 3.877 5.523 6.344 9.577 7.167 7.461 1.468 16.391-4.054 16.332-12.396-.059-5.228-.411-10.398-.764-15.626-.235-3.525-.294-7.755-1.88-10.986-.822-1.762-2.174-3.583-3.819-4.7-2.643-1.997-5.581-1.88-8.518-.822zm68.149-19.21c.352 5.757 3.114 10.868 5.464 16.096 1.88 4.289 4.347 8.284 6.58 12.396 4.288 7.754 14.922 9.399 21.737 4.171 6.815-5.287 7.931-15.862 1.468-22.03-3.348-3.231-6.579-6.638-10.222-9.576-4.406-3.525-8.577-7.519-14.041-9.399-5.111-1.763-11.339 2.878-10.986 8.342zm47.351-46.645c1.998 1.586 4.113 2.938 6.169 4.406.294.235 1.645 1.234.176.118-1.997-1.528 1.822 1.41 2.057 1.586 1.292.822-1.939-1.586-.823-.646l1.293 1.116c1.351 1.234 2.585 2.585 3.818 3.936 1.293 1.469-.94-.999-.881-1.116-.059.059.823 1.233.94 1.41 1.116 1.645 2.409 3.172 3.701 4.758l-2.232-2.878 1.645 2.232c2.056 3.055 4.758 5.463 8.401 6.462 3.349.94 7.872.529 10.868-1.41 6.052-3.936 9.459-12.748 5.053-19.269-1.234-1.88-2.644-3.642-4.054-5.404s-3.231-2.996-5.052-4.348c-1.939-1.41-3.936-2.702-6.11-3.701-6.521-3.113-13.454-5.052-20.68-3.701-6.815 1.293-9.928 11.985-4.289 16.449z"/><path d="M263.717 114.955c2.115 1.762 3.878 2.643 6.522 2.996 1.586.235 2.996.117 4.582.059l7.872-.059c5.17.059 10.399.352 15.569.705 4.289.352 8.46-1.939 11.456-4.759 3.76-3.466 5.111-8.753 4.465-13.629-1.234-9.106-10.869-16.684-20.268-13.511-5.934 1.997-11.75 4.406-17.331 7.226-5.464 2.761-13.513 5.992-15.158 12.396-.646 2.878-.058 6.638 2.291 8.577zm-38.715-45.999c2.879-.352 4.818-1.175 7.05-2.937 1.293-.999 2.468-2.115 3.643-3.29l6.638-6.58 6.345-6.286 3.525-3.407c.588-.587 2.115-1.586-.176-.118.705-.47 1.351-.999 2.056-1.527 3.76-2.761 6.756-6.462 6.58-11.456-.176-3.525-1.351-6.815-3.877-9.341-2.409-2.409-5.993-3.877-9.342-3.877-4.229 0-9.634 2.409-11.456 6.579-2.526 5.698-6.051 10.868-9.282 16.155l-4.7 7.52c-1.997 3.231-4.817 7.108-4.406 11.044.352 3.701 3.055 8.048 7.402 7.52zm-59.865-22.382c2.526-3.584 3.76-7.696 5.17-11.808a191.38 191.38 0 0 1 4.406-11.456l-1.41 3.29c.352-.764.705-1.469 1.175-2.174l-2.292 2.937c3.467-3.349 4.759-7.402 4.994-12.102.353-7.52-5.992-13.923-13.101-14.863-7.167-.94-14.805 3.466-16.567 10.809-1.116 4.641-.764 9.047 1.704 13.159l-1.469-3.525c1.351 3.995 1.586 8.459 2.409 12.572.94 4.582 1.997 9.047 4.582 12.983 2.644 4.112 7.755 3.995 10.399.176zm-62.098 10.281c1.468-7.696-2.938-15.039-6.991-21.384-1.469-2.35-2.35-4.994-3.877-7.343-1.88-2.937-3.642-4.7-6.286-6.697-3.584-2.761-7.696-3.584-12.161-3.584-5.17 0-9.987 2.761-12.631 7.226-2.761 4.7-2.409 9.987 0 14.745 1.351 2.644 2.879 4.935 5.346 6.815s4.935 3.114 7.931 4.112l3.466 1.175c.529.176.999.411 1.527.587 2.233.822-2.82-1.527-.646-.176-.823-.529-1.998-1.586-.529-.353.47.411.94.764 1.41 1.175 1.057.94 2.115 1.939 3.114 2.996 2.174 2.232 4.054 4.876 7.05 6.168 2.761 1.234 5.17 1.645 7.99.47 2.468-1.116 4.759-3.231 5.288-5.933z"/></g><path d="M241.687 195.261c-13.63 25.026-37.247 42.356-62.744 49.406-29.492 8.166-62.568 2.644-86.479-18.153s-36.953-57.513-28.905-90.058c.646-2.526 1.351-5.052 2.232-7.578 16.802-49.289 74.376-83.949 120.024-70.32 25.321 7.578 48.762 26.26 60.571 52.754 1.175 2.703 2.232 5.464 3.172 8.284 7.814 24.614 4.347 53.283-7.872 75.665z" fill="#fdcc13"/><path d="M238.984 131.345c.294-18.74-18.505-24.145-33.31-19.798-14.511 4.289-22.56 19.093-13.043 31.958 5.934 7.99 16.509 12.161 26.261 10.399 10.693-1.998 19.857-11.632 20.092-22.559zm-97.289 0c.294-18.74-18.506-24.145-33.31-19.798-14.511 4.289-22.56 19.093-13.043 31.958 5.934 7.99 16.509 12.161 26.261 10.399 10.693-1.998 19.916-11.632 20.092-22.559z" fill="#fff"/><path d="M241.687 195.261c-13.63 25.026-37.247 42.356-62.744 49.406-29.492 8.166-62.568 2.643-86.479-18.153s-36.953-57.513-28.905-90.058c.646-2.526 1.351-5.052 2.232-7.579-3.29 18.564-1.175 38.127 6.756 55.222 9.87 21.443 29.022 38.655 51.699 45.235 9.517 2.761 19.446 3.642 29.316 3.642 19.505 0 39.538-3.818 55.87-14.451 18.036-11.808 30.256-31.253 35.955-52.05 4.171-15.215 5.17-31.077 4.171-46.879 7.814 24.614 4.347 53.283-7.872 75.665z" fill="#fcaf17"/><path d="M155.267 201.841c-9.341-7.637-9.4-15.098-13.219-25.144 6.463 3.643 14.864 4.113 21.914 2.233 6.697-1.763 12.983-5.053 18.153-9.694-3.231 2.879-1.116 24.204-3.877 30.137-4.7 10.222-14.629 9.224-22.971 2.468z" fill="#d06015"/><path d="M232.992 136.515c6.11-12.043-5.875-22.5-17.449-18.27-7.814 2.878-12.513 11.455-10.105 19.503.47 1.587 1.234 3.055 2.35 4.23 1.645 1.704 3.936 2.526 6.228 2.996 7.343 1.41 15.627-1.821 18.976-8.459z" fill="#2a2a86"/><path d="M216.425 131.11c1.939 9.576 16.567 2.467 13.63-4.993-2.762-7.226-15.04-2.174-13.63 4.993z" fill="#fff"/><path d="M138.406 136.515c6.11-12.043-5.875-22.5-17.449-18.27-7.813 2.878-12.513 11.455-10.105 19.503.47 1.587 1.234 3.055 2.35 4.23 1.645 1.704 3.936 2.526 6.228 2.996 7.285 1.41 15.627-1.821 18.976-8.459z" fill="#2a2a86"/><path d="M122.896 133.225c1.939 9.576 16.567 2.467 13.63-4.993-2.82-7.168-15.099-2.174-13.63 4.993z" fill="#fff"/></svg>
